X:37
T:Billy from Bruff
R:song air
H:From Jack Sheedy: a very old man: 1849.  Bruff in Co. Limerick
B:
M:6/8
L:1/8
K:G
"Moderately and gracefully"\
E|EAB cBc|AdB GAB|EAB cBc|Aee e>cA/G/|
|:A|Aab aga|ega gdB|Aab age|def g2 d/B/|
Aab aga|ede gab|age dgB|cAA A2:|
|:c/d/|efe dcB|cAG EGB|AGA cBc|dcd e2 c/d/|
efe dcB|cAG G2 e/g/|age dgB|cAA A2:|
|:c/d/|eag a2 e|gfe dBG|eag aef|gdB G2 c/d/|
eag aef|g/f/a/g/e/f/ gab|age dgB|cAA A2:|
